src/assets/svg-icons/users-icon-light.svg

<svg width="16" height="14" viewBox="0 0 16 14" fill="none" xmlns="http://www.w3.org/2000/svg">
<path fill-rule="evenodd" clip-rule="evenodd" d="M7.99989 2.37793C9.23199 2.37793 10.2325 3.37839 10.2325 4.61049C10.2325 5.28305 9.91081 6.15653 9.4064 6.74537C9.01642 7.20094 8.52036 7.48422 7.99989 7.48422C7.47943 7.48422 6.98339 7.20097 6.59338 6.74537C6.08898 6.15653 5.76733 5.28305 5.76733 4.61049C5.76733 3.37839 6.7678 2.37793 7.99989 2.37793Z" fill="#F5F5F5"/>
<path fill-rule="evenodd" clip-rule="evenodd" d="M12.535 0.458984C13.4978 0.458984 14.2792 1.24038 14.2792 2.20317C14.2792 2.71387 14.0364 3.37805 13.6534 3.82525C13.3443 4.18664 12.9473 4.40503 12.535 4.40503C12.1227 4.40503 11.7257 4.18667 11.4166 3.82528C11.0336 3.37808 10.7908 2.7139 10.7908 2.20317C10.7908 1.24038 11.5722 0.458984 12.535 0.458984Z" fill="#F5F5F5"/>
<path fill-rule="evenodd" clip-rule="evenodd" d="M3.46516 0.458984C4.42795 0.458984 5.20935 1.24038 5.20935 2.20317C5.20935 2.71387 4.96656 3.37805 4.58355 3.82525C4.27446 4.18664 3.8775 4.40503 3.46516 4.40503C3.05282 4.40503 2.65586 4.18667 2.34677 3.82528C1.96374 3.37808 1.72095 2.7139 1.72095 2.20317C1.72097 1.24038 2.50237 0.458984 3.46516 0.458984Z" fill="#F5F5F5"/>
<path fill-rule="evenodd" clip-rule="evenodd" d="M7.99997 7.85449C10.1767 7.85449 11.9418 9.61961 11.9418 11.7964V12.5289C11.9418 13.0878 11.489 13.5405 10.9302 13.5405H5.06973C4.51088 13.5405 4.05811 13.0878 4.05811 12.5289V11.7964C4.05811 9.61961 5.82322 7.85449 7.99997 7.85449Z" fill="#F5F5F5"/>
<path fill-rule="evenodd" clip-rule="evenodd" d="M4.16766 9.17977H1.37209C0.890698 9.17977 0.5 8.7891 0.5 8.30771V7.78445C0.5 6.147 1.82766 4.81934 3.46512 4.81934C4.0951 4.81934 4.67907 5.01537 5.15907 5.35025C5.30558 5.99909 5.62583 6.68771 6.06326 7.19838C6.14629 7.29534 6.23278 7.38536 6.32208 7.46908C5.44301 7.81025 4.69302 8.41236 4.16766 9.17977Z" fill="#F5F5F5"/>
<path fill-rule="evenodd" clip-rule="evenodd" d="M10.841 5.35025C11.321 5.01537 11.905 4.81934 12.5349 4.81934C14.1724 4.81934 15.5001 6.147 15.5001 7.78445V8.30771C15.5001 8.7891 15.1094 9.1798 14.628 9.1798H11.8324C11.307 8.41236 10.557 7.81025 9.67798 7.4691C9.76728 7.38538 9.85379 7.2954 9.93683 7.19841C10.3742 6.68771 10.6945 5.99909 10.841 5.35025Z" fill="#F5F5F5"/>
</svg>

<svg xmlns="http://www.w3.org/2000/svg" width="16" height="14" fill="none" viewBox="0 0 16 14"><path fill="#F5F5F5" fill-rule="evenodd" d="M8 2.378c1.232 0 2.232 1 2.232 2.232 0 .673-.321 1.547-.826 2.135-.39.456-.886.74-1.406.74-.52 0-1.017-.284-1.407-.74-.504-.588-.826-1.462-.826-2.135 0-1.232 1-2.232 2.233-2.232ZM12.535.459c.963 0 1.744.781 1.744 1.744 0 .51-.243 1.175-.626 1.622-.309.362-.706.58-1.118.58-.412 0-.81-.218-1.118-.58-.383-.447-.626-1.111-.626-1.622 0-.963.781-1.744 1.744-1.744Zm-9.07 0c.963 0 1.744.781 1.744 1.744 0 .51-.242 1.175-.625 1.622-.31.362-.706.58-1.119.58-.412 0-.81-.218-1.118-.58-.383-.447-.626-1.111-.626-1.622 0-.963.781-1.744 1.744-1.744ZM8 7.854a3.942 3.942 0 0 1 3.942 3.942v.733c0 .559-.453 1.011-1.012 1.011H5.07a1.011 1.011 0 0 1-1.012-1.011v-.733A3.942 3.942 0 0 1 8 7.854ZM4.168 9.18H1.372A.872.872 0 0 1 .5 8.308v-.524A2.965 2.965 0 0 1 5.16 5.35c.146.65.466 1.338.903 1.848.083.097.17.187.26.271a4.66 4.66 0 0 0-2.155 1.71Zm6.673-3.83a2.965 2.965 0 0 1 4.66 2.434v.524a.874.874 0 0 1-.873.872h-2.796a4.66 4.66 0 0 0-2.154-1.71c.09-.085.176-.175.259-.272.437-.51.758-1.199.904-1.848Z" clip-rule="evenodd"/></svg>
